shader_type canvas_item;

void vertex() {
	COLOR.r += 1.0;
}

void fragment() {
}

//void light() {
//	// Called for every pixel for every light affecting the CanvasItem.
//	// Uncomment to replace the default light processing function with this one.
//}
